!!!!SEGMENT: artfugue-010.krn
!!!COM: Bach, Johann Sebastian
!!!CDT: 1685/03/31-1750/07/28
!!!OPR@@DE: Die Kunst der Fuge
!!!OPR@EN: The Art of the Fugue
!!!OTL: Contrapunctus 10, a 4, alla Decima
!!!SCA: BWV 1080
!!!voices: 4
!!!AGN: Double fugue
!!!ONB1: two subjects occurring dependently and
!!!ONB2: in invertible counterpoint at the tenth
**kern	**kern	**kern	**kern
*part4	*part3	*part2	*part1
*staff4	*staff3	*staff2	*staff1
*I"	*I"	*I"	*I"
*clefF4	*clefC4	*clefC3	*clefC1
*mclefF4	*mclefGv2	*mclefG2	*mclefG2
*k[b-]	*k[b-]	*k[b-]	*k[b-]
*d:	*d:	*d:	*d:
*M4/4	*M4/4	*M4/4	*M4/4
*met(c)	*met(c)	*met(c)	*met(c)
*mmet(c)	*mmet(c)	*mmet(c)	*mmet(c)
*MM144	*MM144	*MM144	*MM144
=1	=1	=1	=1
1r	1r	4r	1r
.	.	4c#	.
.	.	4d	.
.	.	4A	.
=2	=2	=2	=2
1r	1r	4r	1r
.	.	4fX	.
.	.	4e	.
.	.	4a	.
=3	=3	=3	=3
1r	2r	8dL	1r
.	.	8e	.
.	.	8fX	.
.	.	8gJ	.
.	4r	8aL	.
.	.	8b-J	.
.	4F#X	[4ccX	.
=4	=4	=4	=4
1r	4G	8ccL]	1r
.	.	8b-	.
.	4D	8a	.
.	.	8gJ	.
.	4r	8f#L	.
.	.	8dJ	.
.	4B-	[4g	.
=5	=5	=5	=5
1r	4A	8gL]	1r
.	.	8e	.
.	4d	8f#	.
.	.	8gJ	.
.	8GL	[2b-	.
.	8A	.	.
.	8B-	.	.
.	8cJ	.	.
=6	=6	=6	=6
1r	8dL	8b-L]	1r
.	8eJ	8g	.
.	[4f	8a	.
.	.	8cc#J	.
.	8fL]	[2dd	.
.	8e	.	.
.	8d	.	.
.	8cJ	.	.
!!LO:LB:g=original
=7	=7	=7	=7
4r	8B-L	8ddL]	1r
.	8AJ	8ccX	.
4F	2d	8b-	.
.	.	8aJ	.
4E	.	8gL	.
.	.	8fXJ	.
4A	8c#XL	4e	.
.	8BnJ	.	.
=8	=8	=8	=8
4r	8c#XL	4.a	2r
.	8dJ	.	.
4C#X	[4e	.	.
.	.	8g	.
4D/	8eL]	4fX	4r
.	8dJ	.	.
4AA	[4e	8eL	4ccX
.	.	8f#J	.
=9	=9	=9	=9
8EL	2.e]	4g#	4b
8D	.	.	.
8C	.	8aL	4ee
8BBnJ	.	8bJ	.
8AAL	.	4ccX	4r
8GGJ	.	.	.
[4FF	4d	4b	4g#
=10	=10	=10	=10
8FFL]	2c	2a	4a
8GG	.	.	.
8AA	.	.	4e
8BBnJ	.	.	.
4C	8r	2r	8aL
.	8E	.	8g
4AA	[4A/	.	8fX
.	.	.	8eJ
=11	=11	=11	=11
4BBn	4A/]	1r	8dL
.	.	.	8cXJ
[4E	8GL	.	[4B
.	8F#XJ	.	.
8EL]	2G	.	8BL]
8AA	.	.	8c#
8BB	.	.	8d
8C#XJ	.	.	8eJ
=12	=12	=12	=12
2D	8FnL	1r	8fXL
.	8G	.	8e
.	8A	.	8f
.	8BnJ	.	8dJ
8CnL	2c	.	8eL
8D	.	.	8f#
8E	.	.	8g
8F#XJ	.	.	8aJ
!!LO:LB:g=original
=13	=13	=13	=13
2G	8B-L	1r	8b-L
.	8c	.	8a
.	8d	.	8b-
.	8eJ	.	8gJ
8DL	2f	.	4a
8E	.	.	.
8F	.	.	[4dd
8GJ	.	.	.
=14	=14	=14	=14
[2A	4e	4r	8ddL]
.	.	.	8ccX
.	8fL	4g#	8dd
.	8dJ	.	8bJ
8AL]	8eL	4a	4cc
8F	8AJ	.	.
8G	4B-	4fX	4cc#
8EJ	.	.	.
=15	=15	=15	=15
8FL	4A	4r	4dd
8E	.	.	.
8D	4d	4b-	4g
8C#XJ	.	.	.
8DL	4r	4a	4fX
8BB-	.	.	.
8Cn	4F#X	4dd	4a
8AAJ	.	.	.
=16	=16	=16	=16
8BBnL	4G	8gL	4.dd
8C#XJ	.	8a	.
2D/	4D	8b	.
.	.	8cc#J	8ee
!!LO:MO:ori
*	*	*clefC1	*
!!LO:MO:end
.	8AL	8ddL	8ffXL
.	8G	8eeJ	8ggJ
4FF	8F	[4ffX	[4aa
.	8EJ	.	.
=17	=17	=17	=17
2.GG	8DL	8ffL]	4aa]
.	8CJ	8ee	.
.	[4BB-	8dd	8bb-L
.	.	8ccXJ	8aaJ
.	8BB-L]	8b-L	8ggL
.	8C	8aJ	8ffXJ
8FFL	8D	[4b-	4gg
8GGJ	8EJ	.	.
=18	=18	=18	=18
2.AA	8FL	4b-]	[1ccX
.	8GJ	.	.
.	2F	8aL	.
.	.	8gJ	.
.	.	8fXL	.
.	.	8g	.
8BB-L	8GL	8f	.
8CJ	8AJ	8e-XJ	.
!!LO:MO:ori
*	*	*clefC3	*
!!LO:MO:end
!!LO:LB:g=original
=19	=19	=19	=19
4D	[2B-	[2d	8ccL]
.	.	.	8f#
8EL	.	.	8g
8F#XJ	.	.	8aJ
8GL	8B-L]	4d]	[2b-
8Fn	8A	.	.
8E	8G	8enL	.
8DJ	8FJ	8fXJ	.
=20	=20	=20	=20
4C	4E	8gL	2b-]
.	.	8fX	.
8DL	8FL	8e	.
8EJ	8GJ	8dJ	.
8FL	4A	4cX	[2a
8E	.	.	.
8D	4d	4f	.
8CJ	.	.	.
=21	=21	=21	=21
4BB-	4D	[2fX	8a]
.	.	.	4dd
8B-L	4r	.	.
8AJ	.	.	8cc#
4B-	4r	8fL]	[2dd
.	.	8f#	.
4BB-	4d	8g	.
.	.	8g#J	.
=22	=22	=22	=22
4AA	2e	2a	4dd]
8AL	.	.	4cc#
8B-J	.	.	.
8AL	2r	2r	2r
8G	.	.	.
8F	.	.	.
8EJ	.	.	.
=23	=23	=23	=23
8FL	1r	1r	2ff
8E	.	.	.
8F	.	.	.
8GJ	.	.	.
8FL	.	.	4.dd
8E	.	.	.
8D	.	.	.
8C#XJ	.	.	8ee
=24	=24	=24	=24
8DL	1r	2dd	4.ff
8DD	.	.	.
8D	.	.	.
8EJ	.	.	8gg
8FL	.	4.a	2aa
8A	.	.	.
8d	.	.	.
8fJ	.	8bn	.
!!LO:LB:g=original
=25	=25	=25	=25
8eL	1r	4.cc#X	2bb-
8f	.	.	.
8g	.	.	.
8eJ	.	8dd	.
8c#XL	.	2ee	4.aa
8d	.	.	.
8e	.	.	.
8c#J	.	.	8gg
=26	=26	=26	=26
4d	2d	2a	[2ff
4D	.	.	.
2r	4.A	2r	8ffL]
.	.	.	8ee
.	.	.	8ff#X
.	8Bn	.	8gg#XJ
=27	=27	=27	=27
1r	4.c	1r	8aaL
.	.	.	16ggnL
.	.	.	16ffJJ
.	.	.	[4ee
.	8d	.	.
.	2e	.	8eeL]
.	.	.	8dd
.	.	.	8cc
.	.	.	8bnJ
=28	=28	=28	=28
1r	2f	1r	8aL
.	.	.	8g#X
.	.	.	8a
.	.	.	8bnJ
.	4.e	.	8cc#XL
.	.	.	8dd
.	.	.	8ee
.	8d	.	8ffJ
=29	=29	=29	=29
1r	[2c#X	1r	8ggL
.	.	.	8aa
.	.	.	8bb-
.	.	.	8ggJ
.	8c#L]	.	8eeL
.	8A	.	8aa
.	8Bn	.	8gg
.	8c#XJ	.	8aaJ
=30	=30	=30	=30
1r	8dL	1r	8ffL
.	8eJ	.	8gg
.	[4f	.	8aa
.	.	.	8ffJ
.	8fL]	.	8ddL
.	8e	.	8gg
.	8d	.	8ff
.	8eJ	.	8ggJ
!!LO:LB:g=original
=31	=31	=31	=31
2A	8c#XL	1r	8eeL
.	8dJ	.	8ff
.	[4e	.	8gg
.	.	.	8eeJ
4.D	8eL]	.	4.ff
.	8AJ	.	.
.	[4d	.	.
8E	.	.	8gg
=32	=32	=32	=32
4.F	8dL]	1r	4.aa
.	8eJ	.	.
.	[4f	.	.
8G	.	.	8gg
2A	8fL]	.	8ffL
.	8gJ	.	8ee
.	[4a	.	8dd
.	.	.	8cc#XJ
=33	=33	=33	=33
2B-	8aL]	1r	[2dd
.	8g	.	.
.	8f	.	.
.	8eJ	.	.
4.A	4f	.	8ddL]
.	.	.	8bnJ
.	4e	.	4cc#X
8G	.	.	.
!!LO:MO:ori
*	*	*clefC1	*
!!LO:MO:end
=34	=34	=34	=34
[2F	4A	2dd	8ddL
.	.	.	8b-X
.	8BnL	.	8a
.	8c#XJ	.	8gJ
8FL]	2d	4.a	4f
8E	.	.	.
8F	.	.	[4ff
8GJ	.	8b	.
=35	=35	=35	=35
[2A	4.cn	4.cc	8ffL]
.	.	.	8ee
.	.	.	8ff#X
.	8Bn	8dd	8gg#XJ
8AL]	[2c	2ee	[2aa
8G	.	.	.
8F	.	.	.
8EJ	.	.	.
=36	=36	=36	=36
2D	8cL]	2ff	2aa_
.	8c	.	.
.	8B-X	.	.
.	8AJ	.	.
[2G	4.B-	4.ee	8aaL]
.	.	.	8aa
.	.	.	8gg
.	8d	8dd	8ffJ
!!LO:LB:g=original
=37	=37	=37	=37
8GL]	2a	[2cc#X	4ee
8G	.	.	.
8F	.	.	2aa
8EJ	.	.	.
[2F	2r	8cc#L]	.
.	.	8a	.
.	.	8bn	4gg
.	.	8cc#J	.
=38	=38	=38	=38
8FL]	1r	[2dd	2ff
8E	.	.	.
8F	.	.	.
8GJ	.	.	.
[2A	.	8ddL]	[2ee
.	.	8dd	.
.	.	8ccn	.
.	.	8bnJ	.
=39	=39	=39	=39
8AL]	1r	[2cc	4ee]
8B-X	.	.	.
8A	.	.	8ff#XL
8GJ	.	.	8ggJ
4.F#Xt	.	8ccL]	4aa
.	.	8cc	.
.	.	8b-X	[4dd
16ELL	.	8aJ	.
16F#JJ	.	.	.
!!LO:MO:ori
*	*	*clefC3	*
!!LO:MO:end
=40	=40	=40	=40
8GL	1r	[2b-	4dd]
8A	.	.	.
8G	.	.	8eeL
8FJ	.	.	8ffJ
4.Et	.	8b-L]	4gg
.	.	8b-	.
.	.	8a	[4cc
16DLL	.	8gJ	.
16EJJ	.	.	.
=41	=41	=41	=41
4F	1r	[2a	8ccL]
.	.	.	8bn
8EL	.	.	8cc#X
8DJ	.	.	8ddJ
4.C#Xt	.	8aL]	4ee
.	.	8g	.
.	.	8f	[4a
16BBnLL	.	8eJ	.
16C#JJ	.	.	.
=42	=42	=42	=42
[2D/	1r	2.f	8aL]
.	.	.	8a
.	.	.	8dd
.	.	.	8cc#XJ
8DL]	.	.	[2dd
8FF	.	.	.
8BB-	.	4f	.
8AAJ	.	.	.
!!LO:LB:g=original
=43	=43	=43	=43
8GGL	1r	2.e	4dd]
8AA	.	.	.
8BB-	.	.	4dd
8AAJ	.	.	.
8EEL	.	.	2cc#X
8AA	.	.	.
8GG	.	4e	.
8AAJ	.	.	.
=44	=44	=44	=44
8FFL	4r	2a	8ddL
8GG	.	.	8b-J
8AA	4F#X	.	[4ccn
8FF#XJ	.	.	.
4BB-	4G	4.d	8ccL]
.	.	.	8aJ
4GG	4D	.	[4b-
.	.	8e	.
=45	=45	=45	=45
4.D	4r	4.f	8b-L]
.	.	.	8aJ
.	4B-	.	[4dd
8E	.	8g	.
4.F	4A	2a	8ddL]
.	.	.	8cc#XJ
.	4d	.	[4dd
8F#X	.	.	.
=46	=46	=46	=46
2G	8GL	2b-	8ddL]
.	8A	.	8cc#X
.	8B-	.	8dd
.	8cJ	.	8eeJ
8FnL	8dL	4.a	4.ff
8GJ	8eJ	.	.
4A	[4f	.	.
.	.	8g	8ee
=47	=47	=47	=47
4B-	8fL]	[2f	[2dd
.	8e	.	.
2A	8d	.	.
.	8cJ	.	.
.	2B-T	8fL]	8ddL]
.	.	8e	8cc#X
[4G	.	8f	8dd
.	.	8gJ	8eeJ
=48	=48	=48	=48
8G]L	2.A	4a	4cc#X
8G	.	.	.
8F	.	[4dd	4r
8EJ	.	.	.
[2F	.	8ddL]	2r
.	.	8cc	.
.	8dL	8b-	.
.	8cJ	8aJ	.
!!LO:LB:g=original
=49	=49	=49	=49
4F]	8B-L	4g	1r
.	8AJ	.	.
8EL	2G	[4cc	.
8DJ	.	.	.
[2E	.	8ccL]	.
.	.	8b-	.
.	8cL	8a	.
.	8B-J	8gJ	.
=50	=50	=50	=50
4E]	8AL	4f	4r
.	8GJ	.	.
8DL	[4F	2b-	8ddL
8C#XJ	.	.	8eeJ
[2D	8FL]	.	8ffL
.	8EJ	.	8gg
.	4F	4a	8aa
.	.	.	8ffJ
=51	=51	=51	=51
2D]	4B-	4ee	8ggL
.	.	.	8aa
.	4E	4r	8bb-
.	.	.	8ggJ
2C#X	[2A/	2r	8eeL
.	.	.	8aa
.	.	.	8gg
.	.	.	8aaJ
=52	=52	=52	=52
2D	8AL]	4r	8ffL
.	8G	.	8eeJ
.	8F	4d	[4dd
.	8GJ	.	.
4.AA	4A/	4fX	8ddL]
.	.	.	8bn
.	4E	4cX	8cc
8BBn	.	.	8ddJ
=53	=53	=53	=53
4.C	4.A	4r	8eeL
.	.	.	8ddJ
.	.	4a	[4cc
8D	8Bn	.	.
2E	8cL	4g	8ccL]
.	8d	.	8bnJ
.	8c	4ccX	[4ee
.	8BJ	.	.
!!LO:MO:ori
*	*	*clefC1	*
!!LO:MO:end
=54	=54	=54	=54
2F	2.A	8fXL	4ee]
.	.	8g	.
.	.	8a	4dd
.	.	8bJ	.
4.E	.	8ccXL	4cc
.	.	8ddJ	.
.	4G#X	[4ee	4bn
8D	.	.	.
!!LO:LB:g=original
=55	=55	=55	=55
[2C	4A	8eeL]	2a
.	.	8dd	.
.	4E	8ccX	.
.	.	8bJ	.
8CL]	4e	[2a	2r
8BBn	.	.	.
8C	8dL	.	.
8DJ	8cJ	.	.
=56	=56	=56	=56
8EL	4Bn	8aL]	1r
8D#XJ	.	8f#J	.
4E	8EL	4g#	.
.	8F#XJ	.	.
4r	8G#XL	2r	.
.	8A	.	.
4E	8Bn	.	.
.	8cJ	.	.
=57	=57	=57	=57
8F#XL	8dL	1r	1r
8G#XJ	8e	.	.
2A	8f	.	.
.	8dJ	.	.
.	8BnL	.	.
.	8e	.	.
8G#XL	8d	.	.
8F#XJ	8eJ	.	.
=58	=58	=58	=58
4Gn	8c#XL	1r	4r
.	8AJ	.	.
4Fn	4d	.	8aL
.	.	.	8bnJ
4E	4G	.	8cc#XL
.	.	.	8dd
4D	4B-	.	8ee
.	.	.	8ffJ
=59	=59	=59	=59
4C#X	4E	1r	8ggL
.	.	.	8aa
8DL	2D	.	8bb-
8BB-J	.	.	8ggJ
4GG	.	.	8eeL
.	.	.	8aa
4AA	4C#X	.	8gg
.	.	.	8aaJ
=60	=60	=60	=60
4DD	4D	4r	8ffL
.	.	.	8gg
4r	4r	8dL	8ff
.	.	8eJ	8eeJ
2r	2r	8fL	8ddL
.	.	8g	8ee#
.	.	8a	8ff
.	.	8bnJ	8ddJ
!!LO:LB:g=original
=61	=61	=61	=61
1r	1r	8ccL	8eeL
.	.	8dd	8ff#XJ
.	.	8ee-X	2gg
.	.	8ccJ	.
.	.	8aL	.
.	.	8dd	.
.	.	8cc	4ff#
.	.	8ddJ	.
=62	=62	=62	=62
4r	1r	8b-L	4gg
.	.	8cc	.
8GGL	.	8b-	4dd
8AAJ	.	8aJ	.
8BB-L	.	8gL	[2gg
8C	.	8a	.
8D	.	8b-	.
8EJ	.	8gJ	.
=63	=63	=63	=63
8FL	1r	8aL	4gg]
8G	.	8bnJ	.
8A	.	2cc	8ffL
8FJ	.	.	8eeJ
8DL	.	.	4ff
8G	.	.	.
8F	.	[4b-X	4dd
8GJ	.	.	.
=64	=64	=64	=64
8EL	1r	4b-]	2.cc
8F	.	.	.
8G	.	4e	.
8EJ	.	.	.
8CL	.	[2a	.
8F	.	.	.
8E	.	.	4cc
8FJ	.	.	.
=65	=65	=65	=65
8DL	1r	4a]	[2ff
8E	.	.	.
8F	.	4dd	.
8DJ	.	.	.
8BBnL<	.	[2g	8ffL]
8E	.	.	8gg
8D	.	.	8ff
8EJ	.	.	8ggJ
=66	=66	=66	=66
2C#X	2A	8gL]	4ee
.	.	8g	.
.	.	8f	4a
.	.	8eJ	.
[2D	4.D	8fL	4b-
.	.	8e	.
.	.	8d	4fX
.	8E	8c#XJ	.
!!LO:LB:g=original
=67	=67	=67	=67
4D]	4.F	8dL	4r
.	.	8eJ	.
4BB-	.	[4f	4dd
.	8G	.	.
4.F	2A	8fL]	4ccX
.	.	8eJ	.
.	.	[4d	4ffX
8D	.	.	.
=68	=68	=68	=68
4.G	2B-	4d]	8b-L
.	.	.	8ccX
.	.	8ddL	8dd
8G	.	8cc#XJ	8eeJ
4.F	4.A	8ddL	8ffXL
.	.	8eeJ	8ggJ
.	.	[4ff	[4aa
8E	8G	.	.
=69	=69	=69	=69
4.D	[2F	4ff]	8aaL]
.	.	.	8gg
.	.	4a	8ffX
8C	.	.	8eeJ
2BB-	8FL]	4b-	2dd
.	8E	.	.
.	8F	8dL	.
.	8GJ	8eJ	.
=70	=70	=70	=70
2F	8AL	8fL	[2ccX
.	8c	8e	.
.	8d	8f	.
.	8eJ	8gJ	.
2r	4.f	4.a	8ccL]
.	.	.	8cc
.	.	.	8dd
.	8e	8g	8eeJ
=71	=71	=71	=71
2r	4.d	8fL	[2ff
.	.	8g	.
.	.	8b-	.
.	8c	8ccJ	.
8r	4.B-	[2dd	8ffL]
8DL	.	.	8ff#X
8E	.	.	8gg
8F#XJ	8A	.	8aaJ
=72	=72	=72	=72
2G	8GL	4.dd]	2bb-
.	8d	.	.
.	8e	.	.
.	8f#XJ	8cc	.
2r	4.g	4.b-	8r
.	.	.	8ddL
.	.	.	8ee
.	8fn	8a	8ffJ
!!LO:LB:g=original
=73	=73	=73	=73
2r	4.e	8gL	[2gg
.	.	8bn	.
.	.	8cc	.
.	8d	8ddJ	.
8r	4.c	[2ee	8ggL]
8EL	.	.	8gg#X
8F#X	.	.	8aa
8G#XJ	8Bn	.	8bbnJ
=74	=74	=74	=74
2A	8AL	4.ee]	2ccc
.	8e	.	.
.	8f#X	.	.
!!LO:MO:ori
*	*	*clefC3	*
!!LO:MO:end
.	8g#XJ	8dd	.
2r	4.a	4.cc	8r
.	.	.	8eeL
.	.	.	8ffn
.	8gn	8b-	8ggJ
=75	=75	=75	=75
4r	8fL	2cc	2aa
.	8e	.	.
4A	8f	.	.
.	8cJ	.	.
4B-	8dL	4.f	4.dd
.	8c	.	.
4F	8d	.	.
.	8B-J	8g	8ee
=76	=76	=76	=76
4r	8AL	4.a	4.ff
.	8GJ	.	.
4D	[4F	.	.
.	.	8b-	8gg
4C	8FL]	2cc	2aa
.	8E	.	.
4F	8F	.	.
.	[8AJ	.	.
=77	=77	=77	=77
8BB-L	8AL]	2dd	2bb-
8C	8G	.	.
8D	8F	.	.
8EJ	8GJ	.	.
8FL	4.A	4.cc	4.aa
8GJ	.	.	.
[4A	.	.	.
.	8B-	8b-	8gg
=78	=78	=78	=78
8AL]	2.c	[2a	[2ff
8G	.	.	.
8F	.	.	.
8EJ	.	.	.
2D	.	8aL]	8ffL]
.	.	8g	8ee
.	[4F	8a	8ff
.	.	8b-J	8ggJ
!!LO:LB:g=original
=79	=79	=79	=79
2C	8FL]	2cc	8aaL
.	8D	.	8ffJ
.	8E	.	[4gg
.	8GJ	.	.
2r	4.c	2r	8ggL]
.	.	.	8dd
.	.	.	8ee
.	8B-	.	8ggJ
=80	=80	=80	=80
1r	[2A	8r	2cc
.	.	8eL	.
.	.	8f	.
.	.	8aJ	.
.	8AL]	4d	[2b-
.	8F	.	.
.	8G	4e	.
.	8cJ	.	.
=81	=81	=81	=81
1r	2F	4.f	8b-L]
.	.	.	8g
.	.	.	8a
.	.	8e	8ccJ
.	4r	8dL	[2ff
.	.	8A	.
.	[4B-	8B-	.
.	.	8dJ	.
=82	=82	=82	=82
1r	8B-L]	[2e	4ff]
.	8D	.	.
.	8E	.	4bn
.	8GJ	.	.
.	4.C#X	8eL]	[2ee
.	.	8b-	.
.	.	8a	.
.	8C#	8eJ	.
=83	=83	=83	=83
1r	8DL	2f	4ee]
.	8E	.	.
.	8F	.	4dd
.	8AJ	.	.
.	4.d	2r	8r
.	.	.	8eeL
.	.	.	8ffX
.	8c	.	8aaJ
=84	=84	=84	=84
1r	[2B-	8r	2dd
.	.	8f#L	.
.	.	8g	.
.	.	8b-J	.
.	8B-L]	4e	[2ccX
.	8G	.	.
.	8A	4f#	.
.	8dJ	.	.
!!LO:LB:g=original
=85	=85	=85	=85
2G	4G	8gL	8ccL]
.	.	8f#J	8a
.	8dL	4g	8b
.	8eJ	.	8cc#J
4.D	8fL	4b-	4dd
.	8e	.	.
.	8d	4fX	4a
8E	8c#XJ	.	.
!!LO:MO:ori
*	*	*clefC1	*
!!LO:MO:end
=86	=86	=86	=86
4.F	8dL	4r	4r
.	8AJ	.	.
.	[4a	4dd	4ffX
8G	.	.	.
2A	8aL]	4ccX	4ee
.	8e	.	.
.	8d	4ffX	4aa
.	8c#XJ	.	.
=87	=87	=87	=87
2B-	4g	8b-L	8ddL
.	.	8ccX	8ee
.	4d	8dd	8ffX
.	.	8eeJ	8ggJ
4.A	8r	8ffXL	8aaL
.	8dL	8ggJ	8bb-J
.	8c	[4aa	[4cccX
8G	8B-J	.	.
=88	=88	=88	=88
[2F	4.A	8aaL]	8cccL]
.	.	8gg	8bb-
.	.	8ffX	8aa
.	8c#X	8eeJ	8ggJ
8FL]	4d	2dd	2ffX
8E	.	.	.
8F	4A	.	.
8GJ	.	.	.
=89	=89	=89	=89
2A	8aL	2cc#	2ee
.	8e	.	.
.	8d	.	.
.	8eJ	.	.
8r	4f	2r	2r
8AL	.	.	.
8G	4c#X	.	.
8AJ	.	.	.
!!LO:MO:ori
*	*	*clefC3	*
!!LO:MO:end
=90	=90	=90	=90
4B-	4d	8r	2r
.	.	8gL	.
4F#X	4A	8a	.
.	.	8gJ	.
4A	4c	4f#	8r
.	.	.	8ccXL
4D	4F#X	4a	8dd
.	.	.	8ccJ
!!LO:LB:g=original
=91	=91	=91	=91
4E-X	4G	8r	2b-
.	.	8gL	.
4En	4c	8fnX	.
.	.	8gJ	.
4F	8r	4a	2r
.	8cL	.	.
4r	8B-	4e	.
.	8cJ	.	.
=92	=92	=92	=92
2r	4d	4fX	8r
.	.	.	8ffXL
.	4A	4ccX	8gg
.	.	.	8ffJ
8r	4c	4g	4ee
8EL	.	.	.
8F	4c#X	4ee	4aa
8EJ	.	.	.
=93	=93	=93	=93
4D	4d	4a	8ffXL
.	.	.	8aa
2F	4cn	4r	8bb-
.	.	.	8aaJ
.	4B-	8r	4gg
.	.	8ddL	.
[4E-X	4G	8ee-X	4cccX
.	.	8ddJ	.
=94	=94	=94	=94
4E-]	8AL	4ccX	4ffX
.	8c	.	.
4D	8B-	4ffX	4bb-
.	8cJ	.	.
8r	4d	4b-	4r
8FL	.	.	.
8E-X	4A	4cc	[4ff
8FJ	.	.	.
=95	=95	=95	=95
4G	4B-	8r	4ff]
.	.	8gL	.
4C	[4c	8a	2ee-X
.	.	8gJ	.
2D	8cL]	4fX	.
.	8A	.	.
.	8B-	4b-	[4dd
.	8AJ	.	.
=96	=96	=96	=96
4E-X	4G	8r	4dd]
.	.	8e-XL	.
4AA	4c	8fX	2ccX
.	.	8e-J	.
2BB-	8r	4d	.
.	8FL	.	.
.	8G	4g	[4b-
.	8FJ	.	.
!!LO:LB:g=original
=97	=97	=97	=97
4C	4E-X	8r	4b-]
.	.	8cXL	.
4FF#X	4A/	8d	[4a
.	.	8cJ	.
2GG	8r	4B-	8aL]
.	8DL	.	8gJ
.	8E-X	[4b-	[4gg
.	8C#XJ	.	.
=98	=98	=98	=98
2DD	4D	8b-L]	8ggL]
.	.	8gJ	8eeJ
.	4r	4.a	4ff#
2r	4.d	.	[2ffX
.	.	8g	.
.	.	8fXL	.
.	8c	8e-XJ	.
=99	=99	=99	=99
1r	8BnL	4d	4ff]
.	8AJ	.	.
.	4G	4.g	8ee-XL
.	.	.	8ddJ
.	4.c	.	[2ee-
.	.	8fX	.
.	.	8e-XL	.
.	8B-X	8dJ	.
=100	=100	=100	=100
1r	8AL	4cX	4ee-]
.	8GJ	.	.
.	4F	4.fX	8ddL
.	.	.	8ccXJ
.	4.B-	.	8ddL
.	.	8e-X	8ee-XJ
.	.	8dL	[4ffX
.	8A	8cJ	.
=101	=101	=101	=101
1r	1G	4.B-	8ffL]
.	.	.	8dd
.	.	.	8een
.	.	8A	8ffXJ
.	.	8B-L	4gg
.	.	8cX	.
.	.	8d	[4b-
.	.	8enJ	.
=102	=102	=102	=102
1r	4.F	4fX	8b-L]
.	.	.	8g
.	.	4cX	8a
.	8G	.	8b-J
.	8AL	2r	8ccXL
.	8B-	.	8dd
.	8c	.	8ee-X
.	8AJ	.	8ccJ
!!LO:LB:g=original
=103	=103	=103	=103
4r	4B-	8r	4dd
.	.	8ccXL	.
4D	4F	8b-	4ff
.	.	8aJ	.
4E-X	4G	8gL	4.b-
.	.	8f#X	.
4BB-	4D	8g	.
.	.	8aJ	8cc
=104	=104	=104	=104
4r	4r	8b-L	4.dd
.	.	8a	.
4G	4B-	8b-	.
.	.	8gJ	8ee
4F	4A	8ccL	2ff
.	.	8ee-X	.
4B-	4d	8dd	.
.	.	8ccJ	.
=105	=105	=105	=105
8E-XL	8GL	4b-	2gg
8F	8A	.	.
8G	8B-	4ee-X	.
8AJ	8cJ	.	.
8B-L	8dL	8r	4.ff
8cJ	8e-XJ	8ee-L	.
[4d	[4f	8dd	.
.	.	8ccJ	8ee-X
=106	=106	=106	=106
8dL]	8fL]	8b-L	[2dd
8c	8e-X	8a	.
8B-	8d	8g	.
8AJ	8cJ	8aJ	.
2G	2B-	8b-L	8ddL]
.	.	8a	8cc
.	.	8b-	8dd
.	.	8gJ	8eenJ
=107	=107	=107	=107
2F	4A	4cc	4ff
.	4f	4r	8fL
.	.	.	8gJ
2r	4e-X	4r	8aL
.	.	.	8b-
.	4d	4f	8cc
.	.	.	8ddJ
=108	=108	=108	=108
1r	2c	8gL	8ee-XL
.	.	8aJ	8ff
.	.	2b-	8gg
.	.	.	8ee-J
.	2f	.	8ccL
.	.	.	8ff
.	.	[4a	8ee-
.	.	.	8ffJ
!!LO:LB:g=original
=109	=109	=109	=109
1r	8B-L	4a]	8ddL
.	8c	.	8ee-X
.	8d	4d	8ff
.	8B-J	.	8ddJ
.	8e-XL	8r	8b-L
.	8d	8gL	8gJ
.	8c	8a	[4gg
.	8B-J	8b-J	.
=110	=110	=110	=110
1r	8AL	8ccL	4gg]
.	8B-	8dd	.
.	8c	8ee-X	2gg
.	8AJ	8ccJ	.
.	4d	8aL	.
.	.	8dd	.
.	4D	8cc	4ff#X
.	.	8ddJ	.
=111	=111	=111	=111
1r	4G	2b-	8ggL
.	.	.	8ffn
.	[4g	.	8ee-X
.	.	.	8ddJ
.	8gL]	4a	4cc#X
.	8f	.	.
.	8e	[4b-	4dd
.	8dJ	.	.
=112	=112	=112	=112
1r	8c#XL	8b-L]	[2een
.	8d	8a	.
.	8e	8g	.
.	8c#J	8aJ	.
.	8dL	[2f	8eenL]
.	8cn	.	8a
.	8B-	.	8dd
.	8AJ	.	8ccJ
=113	=113	=113	=113
1r	8GL	8fL]	[1b-
.	8D	8a	.
.	8E	8g	.
.	8FJ	8fJ	.
.	8GL>	4e	.
.	8A	.	.
.	8B-	4d	.
.	8GJ	.	.
=114	=114	=114	=114
1r	1A	8c#XL	8b-L]
.	.	8dJ	8b-
.	.	[4e	8a
.	.	.	8gJ
.	.	8eL]	4.f
.	.	8eJ	.
.	.	[4d	.
.	.	.	8f
!!LO:LB:g=original
=115	=115	=115	=115
2A	4r	4d]	8e
.	.	.	4a
.	4A	4c#	.
.	.	.	8g
4.D	4B-	4d	8fL
.	.	.	8e
.	4F	4A	8f
8E	.	.	8gJ
=116	=116	=116	=116
4.F	4r	4r	8aL
.	.	.	8g
.	4d	4fX	8a
8G	.	.	8b-J
2A	4c	4e	8ccL
.	.	.	8dd
.	4f	4a	8ee-X
.	.	.	8ccJ
=117	=117	=117	=117
2B-	8B-L	8dL	2dd
.	8c	8e	.
.	8d	8fX	.
.	8eJ	8gJ	.
4.A	8fL	8aL	4cc
.	8gJ	8b-J	.
.	[4a	[4ccX	8ffL
8G	.	.	8eeJ
=118	=118	=118	=118
[2F	8aL]	8ccL]	4.ff
.	8g	8b-	.
.	8f	8a	.
.	8eJ	8gJ	8cc#X
8FL]	4.d	8fXL	[2dd
8E	.	8gJ	.
8F	.	[4a	.
8GJ	8e	.	.
=119	=119	=119	=119
1A	4f	1a_	2.dd]
.	8eL	.	.
.	8dJ	.	.
.	8eL	.	.
.	8fJ	.	.
.	[4g	.	4cc#X
=120	=120	=120	=120
2D;	4g]	2a;]	2dd;
.	4f#X;	.	.
2r	2r	2r	2r
==	==	==	==
*-	*-	*-	*-
!!!RDF**kern: > = above
!!!RDF**kern: < = below
!!!system-decoration: [(s1,s2,s3,s4)]
!!!URL-pdf: https://vmirror.imslp.org/files/imglnks/usimg/8/88/IMSLP504269-PMLP05843-BGA-25.1.pdf#page=43 @{SMS1}, page 43
!!!URL-pdf: https://s9.imslp.org/files/imglnks/usimg/1/1d/IMSLP469177-PMLP5843-Bach,_J.S._-_The_Art_of_the_Fugue.pdf#page=54 @{SMS2}, page 54
!!!URL-youtube: https://www.youtube.com/watch?v=OMtjlaDEMdI&t=2214s Netherlands Bach Society/Malinowski
!!!URL-youtube: https://www.youtube.com/watch?v=N6sUlZa-IrU&t=2214s Netherlands Bach Society
!!!SMS: @{SMS1}
!!!SMS1: Bach-Gesellschaft Ausgabe, Band 25.1 Leipzig: Breitkopf und Härtel, 1878. Plate B.W. XXV (1).
!!!SMS2: Bach-Gesellschaft Ausgabe, Band 47 Leipzig: Breitkopf und Härtel, 1926. Plate B.W. XLVII.
!!!PED: Wilhelm Rust
!!!PED-ODT: 1822-1892
!!!ONB: Fehlt im Berliner Autograph.
!!!ENC: Craig Stuart Sapp
!!!END: 2024/03/23
!!!EED: Craig Stuart Sapp
!!!EEV: 2024/03/28
!!!title: @{OPR} (@{SCA}), @{OTL}
!!!filter-keyboard: autostem -r | satb2gs | shed -e s/clefC./clefG2/I
!!!filter-modern: modori -m | autostem -r
